src/assets/Vector (51).svg

<svg width="79" height="76" viewBox="0 0 79 76" fill="none" xmlns="http://www.w3.org/2000/svg">
<path fill-rule="evenodd" clip-rule="evenodd" d="M33.3181 0.65745C31.7725 1.04755 30.4745 2.13226 29.7964 3.60067L29.3577 4.55026V14.2229V23.8955L29.7644 24.7632C30.5429 26.424 32.0102 27.5046 33.8787 27.7929C35.4091 28.029 74.1416 27.902 74.8536 27.6586C76.3869 27.1341 77.8145 25.6466 78.2402 24.1296C78.5644 22.9744 78.547 22.6928 78.1214 22.198C77.3773 21.333 76.0307 21.8301 75.837 23.0414C75.716 23.7983 75.1809 24.5593 74.5244 24.9082C74.0155 25.1787 73.1643 25.1903 53.9074 25.1903C31.4046 25.1903 33.1518 25.2808 32.3525 24.0734L31.9472 23.4611L31.9044 14.5726C31.8765 8.79312 31.9167 5.47945 32.0192 5.09894C32.2339 4.30182 32.7169 3.72878 33.4584 3.39199C34.0531 3.12207 34.9308 3.10988 53.882 3.10988C72.8971 3.10988 73.7092 3.12115 74.3111 3.39458C74.656 3.55117 75.1358 3.93838 75.3774 4.25491L75.8167 4.83054L75.8929 10.4367C75.9683 15.9819 75.9727 16.0465 76.3084 16.3819C76.8126 16.8858 77.6544 16.8441 78.1296 16.2916L78.499 15.8621L78.4527 10.1301C78.4079 4.61363 78.3938 4.37098 78.0743 3.67942C77.6088 2.67195 76.4653 1.50681 75.455 1.01054L74.5981 0.589818L54.1866 0.565903C42.9603 0.552803 33.5694 0.594083 33.3181 0.65745ZM37.3578 8.17316C36.6264 8.54315 36.5977 8.77027 36.5954 14.1949C36.5931 19.3698 36.6249 19.6874 37.1891 20.1206C37.3606 20.2522 38.3418 20.3077 40.5651 20.311C43.6253 20.3157 43.7065 20.3078 44.0078 19.9732C44.4465 19.4859 44.5243 19.1722 44.3386 18.64C44.0716 17.8737 43.5731 17.7264 41.2466 17.7264H39.1826V13.3214C39.1826 10.8987 39.14 8.80546 39.088 8.66989C38.9875 8.40804 38.2649 7.97605 37.9335 7.97986C37.8246 7.98108 37.5655 8.06805 37.3578 8.17316ZM47.4843 8.14726C46.7984 8.53645 46.7988 8.53219 46.7988 14.2255V19.6534L47.1513 19.9847C47.9015 20.6894 49.1218 20.2533 49.3131 19.2121C49.3632 18.9395 49.3835 16.4733 49.3582 13.7319C49.3143 8.98018 49.2979 8.73295 49.0071 8.44232C48.6267 8.06211 47.8868 7.91878 47.4843 8.14726ZM52.0541 8.14726C51.5753 8.41886 51.3686 8.75824 51.3686 9.27233C51.3686 9.9875 54.9671 19.7267 55.3507 20.0493C55.5249 20.196 55.8922 20.3159 56.1668 20.3159C56.4415 20.3159 56.8112 20.196 56.9883 20.0493C57.2013 19.8731 57.926 18.1023 59.1279 14.8215C60.1276 12.0929 60.9856 9.69382 61.0348 9.49016C61.1628 8.95931 60.6418 8.18352 60.0733 8.05861C59.5443 7.94239 58.776 8.27643 58.608 8.69548C58.548 8.84521 58.026 10.2582 57.448 11.8355C56.8703 13.4127 56.3391 14.8074 56.2678 14.9347C56.1761 15.0986 55.9041 14.5285 55.3356 12.9808C53.9666 9.25436 53.6487 8.46791 53.4428 8.297C53.1299 8.03728 52.3886 7.95731 52.0541 8.14726ZM63.7383 8.13721C62.9884 8.43805 62.9264 8.95184 62.9757 14.4526L63.0214 19.5302L63.3907 19.923L63.7601 20.3159H67.0084C70.0398 20.3159 70.277 20.2958 70.5577 20.015C70.9758 19.5969 71.0826 19.0438 70.8418 18.5418C70.5078 17.8452 70.0787 17.7311 67.7816 17.7286L65.6871 17.7264V16.5839V15.4415H67.0649C68.3248 15.4415 68.4748 15.4095 68.8166 15.0675C69.3408 14.5435 69.3135 13.8654 68.7454 13.2972C68.3225 12.8744 68.2345 12.852 66.9936 12.852H65.6871V11.7095V10.5671H67.9432C69.9991 10.5671 70.2289 10.5397 70.5309 10.2582C71.2251 9.61156 71.0893 8.59601 70.2523 8.1724C69.8033 7.94513 64.2909 7.91527 63.7383 8.13721ZM23.7978 13.9933C21.7694 14.5531 20.3767 15.0867 18.2379 16.1236C4.82711 22.6248 -2.22675 37.8215 1.48084 52.2246C4.62315 64.4316 14.4921 73.4899 26.9966 75.6447C29.7834 76.125 34.5027 76.1169 37.2696 75.6273C54.3875 72.5979 65.7794 56.9302 63.3058 39.8186C62.8521 36.6801 61.5833 32.5866 60.9206 32.1223C60.4686 31.8057 59.861 31.8348 59.4033 32.1948C58.8025 32.6674 58.7807 33.1023 59.2892 34.4815C60.4549 37.643 61.0024 40.8324 61.0021 44.4594C61.0018 47.3657 60.759 49.2832 60.0497 51.9824C59.2318 55.095 56.8642 60.1759 56.5192 59.5593C56.1636 58.924 55.1871 53.6694 55.1795 52.3507C55.1772 51.9413 55.4177 51.6109 56.7 50.2626C58.0486 48.8445 58.2232 48.5983 58.2232 48.1146C58.2232 47.3957 57.6689 46.8204 56.9764 46.8204C56.5449 46.8204 56.264 47.0361 54.8974 48.4178L53.3173 50.0153L50.0199 48.9357C48.2065 48.3421 46.6803 47.8305 46.6285 47.7988C46.5768 47.7671 46.4875 47.3797 46.4302 46.938C45.9604 43.3136 44.6214 39.013 42.728 35.0487L41.8708 33.2544L42.5374 32.3092C43.3536 31.152 43.4206 30.5162 42.7842 29.9687C41.9717 29.2698 41.3155 29.5053 40.3869 30.8292C39.9468 31.4565 39.6675 31.722 39.5014 31.6709C39.368 31.6298 38.5733 31.4761 37.7355 31.3293C36.5361 31.1191 35.3379 31.0624 32.0995 31.0624C28.8611 31.0624 27.6629 31.1191 26.4635 31.3293C25.6257 31.4761 24.8278 31.6309 24.6903 31.6732C24.5055 31.7302 23.9171 31.0304 22.4339 28.9908C21.3304 27.4732 20.3964 26.1504 20.3583 26.0514C20.3204 25.9522 20.6674 25.1868 21.1297 24.3502C22.1553 22.4946 23.1614 20.2211 23.8878 18.1183L24.4327 16.5407L25.3276 16.2896C26.6216 15.9265 27.1256 15.1882 26.6671 14.3271C26.2347 13.5153 25.7387 13.4576 23.7978 13.9933ZM20.133 18.0875C17.4804 19.2519 14.4795 21.2934 12.1899 23.4908C6.89142 28.5765 3.91164 34.8088 3.17713 42.3419L3.10142 43.1186L3.96739 43.7343C5.54456 44.8557 7.71991 46.7663 9.28033 48.4008L10.8199 50.0133L11.6944 49.7123C13.235 49.1824 13.9501 49.2884 14.288 50.0971C14.4499 50.4846 14.4606 50.7132 14.3337 51.0771C14.1482 51.6095 13.7629 51.8465 12.4877 52.2132C12.006 52.3516 11.6118 52.4937 11.6118 52.5291C11.6118 52.5643 11.5064 53.4021 11.3777 54.3908C11.093 56.5768 10.5193 59.2056 9.91126 61.1109L9.45855 62.53L9.87805 63.0802C11.2117 64.8286 14.5662 67.7116 17.0193 69.2176C18.2861 69.9953 21.3892 71.497 21.7294 71.497C21.861 71.497 22.4532 71.1513 23.0455 70.7289C24.6878 69.5569 27.4289 67.9622 29.2067 67.1443L30.8047 66.4092V62.8835V59.3578L29.0871 58.5191C25.1448 56.594 21.422 53.7847 18.7478 50.7167C17.3503 49.1135 17.349 49.1071 17.8547 46.1493C18.559 42.0287 20.068 37.4943 21.8503 34.1412C22.1722 33.5359 22.2694 33.2082 22.1666 33.0749C22.0849 32.9692 21.1426 31.6659 20.0725 30.1789C19.0026 28.6919 18.1178 27.4761 18.1063 27.4771C18.0949 27.4782 17.4483 27.6107 16.6695 27.7714C14.6684 28.1844 14.049 27.925 14.049 26.6739C14.049 25.8633 14.5147 25.5489 16.2429 25.1933C17.0655 25.0241 17.7612 24.8856 17.7892 24.8856C17.8862 24.8856 19.5307 21.872 20.0019 20.8306C20.4499 19.8403 21.3626 17.5695 21.3093 17.578C21.2956 17.5803 20.7662 17.8095 20.133 18.0875ZM28.7484 33.6707C27.5133 33.8242 25.1015 34.2128 24.8979 34.2909C24.5166 34.4373 22.617 38.5764 21.8258 40.985C21.186 42.9326 20.5502 45.6375 20.2183 47.8233C20.1239 48.4448 20.1252 48.4469 21.6203 49.9559C24.2921 52.6523 26.8522 54.5069 30.1671 56.1471L32.0428 57.0752L33.3914 56.4592C35.0902 55.6833 36.7181 54.7168 38.6058 53.3634C39.734 52.5542 40.2041 52.3041 40.5963 52.3041C41.7781 52.3041 42.2038 53.7468 41.2771 54.6108C40.3721 55.4543 37.1515 57.4993 35.2602 58.4312L33.3943 59.3505V62.8887V66.4269L34.8011 67.0714C36.6034 67.897 39.024 69.2869 40.8376 70.5375C42.5048 71.6873 42.3141 71.6887 44.7425 70.5116C46.4774 69.6708 48.1908 68.6118 49.7692 67.4047C50.8399 66.5859 53.2818 64.2593 54.1197 63.2596L54.7044 62.5621L54.2695 61.2032C53.6591 59.2954 53.0867 56.6723 52.7886 54.4175L52.5343 52.4941L48.6476 51.2348C46.0794 50.4026 44.6476 49.862 44.4268 49.6413C44.186 49.4005 44.0626 49.0341 43.9851 48.3304C43.5429 44.3144 41.9839 39.2107 40.0736 35.5261C39.3733 34.1753 39.4292 34.2015 36.3929 33.8035C34.7621 33.5898 30.0564 33.508 28.7484 33.6707ZM3.29807 47.6963C3.44095 49.2841 4.01369 51.9088 4.60274 53.675C5.11988 55.2258 6.41022 58.0404 7.11549 59.1555L7.54687 59.8376L7.74535 59.2643C8.04726 58.3919 8.67788 55.1527 8.87164 53.4791L9.04407 51.9886L8.13134 50.9658C6.75463 49.4232 3.5884 46.5158 3.28513 46.5158C3.23394 46.5158 3.23973 47.0471 3.29807 47.6963ZM30.5001 69.4193C29.1235 70.0463 26.5942 71.4471 25.4976 72.1895C24.9128 72.5854 24.8916 72.5714 26.6158 72.9289C28.4591 73.3109 31.3776 73.5231 33.3547 73.4188C35.2959 73.3162 38.6982 72.804 38.9217 72.5805C38.9925 72.5097 38.5489 72.1286 37.936 71.7336C36.7859 70.9925 32.4035 68.7534 32.1117 68.7576C32.0212 68.759 31.296 69.0568 30.5001 69.4193Z" fill="white"/>
</svg>

<svg xmlns="http://www.w3.org/2000/svg" width="79" height="76" fill="none" viewBox="0 0 79 76"><path fill="#fff" fill-rule="evenodd" d="M33.318.657a5.33 5.33 0 0 0-3.522 2.944l-.438.95v19.344l.406.868c.779 1.661 2.246 2.742 4.115 3.03 1.53.236 40.263.109 40.975-.134 1.533-.525 2.96-2.012 3.386-3.53.324-1.155.307-1.436-.119-1.931-.744-.865-2.09-.368-2.284.843-.121.757-.656 1.518-1.313 1.867-.508.27-1.36.282-20.617.282-22.502 0-20.755.09-21.554-1.117l-.406-.612-.043-8.888c-.027-5.78.013-9.094.115-9.474.215-.797.698-1.37 1.44-1.707.594-.27 1.472-.282 20.423-.282 19.015 0 19.827.011 20.43.285.344.156.824.543 1.065.86l.44.576.076 5.606c.075 5.545.08 5.61.415 5.945.505.504 1.346.462 1.822-.09l.369-.43-.046-5.732c-.045-5.516-.06-5.759-.379-6.45-.465-1.008-1.609-2.173-2.619-2.67l-.857-.42L54.187.566C42.96.553 33.569.594 33.318.657m4.04 7.516c-.732.37-.76.597-.763 6.022-.002 5.175.03 5.492.594 5.926.172.131 1.153.187 3.376.19 3.06.005 3.142-.003 3.443-.338.438-.487.516-.8.33-1.333-.266-.766-.765-.914-3.091-.914h-2.064v-4.405c0-2.422-.043-4.516-.095-4.651-.1-.262-.823-.694-1.154-.69-.11.001-.368.088-.576.193m10.126-.026c-.686.39-.685.385-.685 6.079v5.427l.352.332c.75.704 1.97.268 2.162-.773.05-.273.07-2.739.045-5.48-.044-4.752-.06-4.999-.35-5.29-.381-.38-1.121-.523-1.524-.295m4.57 0c-.479.272-.685.611-.685 1.125 0 .716 3.598 10.455 3.982 10.777.174.147.541.267.816.267s.644-.12.821-.267c.213-.176.938-1.947 2.14-5.227 1-2.73 1.858-5.128 1.907-5.332.128-.53-.393-1.306-.962-1.431-.529-.117-1.297.217-1.465.636-.06.15-.582 1.563-1.16 3.14s-1.109 2.972-1.18 3.1c-.092.164-.364-.407-.932-1.954-1.37-3.727-1.687-4.513-1.893-4.684-.313-.26-1.054-.34-1.389-.15m11.684-.01c-.75.301-.812.815-.762 6.316l.045 5.077.37.393.37.393h3.247c3.032 0 3.269-.02 3.55-.301.418-.418.525-.971.284-1.473-.334-.697-.763-.81-3.06-.813l-2.095-.003v-2.284h1.378c1.26 0 1.41-.033 1.752-.374.524-.524.497-1.203-.072-1.77-.422-.424-.51-.446-1.751-.446h-1.307v-2.285h2.256c2.056 0 2.286-.027 2.588-.309.694-.646.558-1.662-.279-2.086-.449-.227-5.961-.257-6.514-.035m-39.94 5.856c-2.029.56-3.421 1.094-5.56 2.13-13.41 6.503-20.465 21.7-16.758 36.103 3.142 12.207 13.011 21.265 25.516 23.42 2.786.48 7.506.472 10.273-.018 17.118-3.03 28.51-18.697 26.036-35.808-.454-3.139-1.723-7.232-2.385-7.697-.452-.316-1.06-.287-1.518.073-.6.472-.622.907-.114 2.286 1.166 3.162 1.713 6.351 1.713 9.978 0 2.907-.243 4.824-.952 7.523-.818 3.113-3.186 8.194-3.53 7.577-.356-.635-1.333-5.89-1.34-7.208-.003-.41.238-.74 1.52-2.088 1.349-1.419 1.523-1.665 1.523-2.148 0-.72-.554-1.295-1.247-1.295-.431 0-.712.216-2.079 1.598l-1.58 1.597-3.297-1.08c-1.814-.593-3.34-1.105-3.392-1.136-.051-.032-.14-.42-.198-.861-.47-3.624-1.809-7.925-3.702-11.89l-.857-1.794.666-.945c.817-1.157.884-1.793.247-2.34-.812-.7-1.468-.464-2.397.86-.44.627-.72.893-.886.842-.133-.041-.928-.195-1.765-.342-1.2-.21-2.398-.267-5.636-.267s-4.437.057-5.637.267c-.837.147-1.635.302-1.773.344-.184.057-.773-.643-2.256-2.682-1.104-1.518-2.038-2.84-2.076-2.94-.038-.099.31-.864.772-1.7a41.5 41.5 0 0 0 2.758-6.233l.545-1.577.895-.251c1.294-.363 1.798-1.102 1.34-1.963-.433-.812-.93-.87-2.87-.334m-3.665 4.094c-2.653 1.165-5.653 3.206-7.943 5.404-5.299 5.086-8.278 11.318-9.013 18.85l-.076.778.866.615c1.578 1.122 3.753 3.032 5.313 4.667l1.54 1.612.874-.3c1.541-.53 2.256-.425 2.594.384.162.388.173.616.046.98-.186.532-.571.77-1.846 1.136-.482.139-.876.28-.876.316s-.106.873-.234 1.862c-.285 2.186-.859 4.815-1.467 6.72l-.45 1.418.42.55c1.333 1.749 4.687 4.632 7.14 6.138 1.267.777 4.37 2.279 4.71 2.279.132 0 .724-.346 1.317-.768 1.642-1.172 4.383-2.767 6.16-3.585l1.599-.735v-7.051l-1.718-.839c-3.942-1.925-7.665-4.734-10.34-7.802-1.397-1.603-1.398-1.61-.892-4.568.704-4.12 2.213-8.655 3.995-12.008.322-.605.42-.933.317-1.066a440 440 0 0 1-2.094-2.896c-1.07-1.487-1.955-2.703-1.967-2.702-.011.001-.658.134-1.437.294-2 .413-2.62.154-2.62-1.097 0-.81.466-1.125 2.194-1.48.823-.17 1.518-.308 1.546-.308.097 0 1.742-3.014 2.213-4.055.448-.99 1.36-3.261 1.307-3.253a68 68 0 0 0-1.176.51m8.615 15.584c-1.235.153-3.646.542-3.85.62-.381.146-2.281 4.285-3.072 6.694-.64 1.948-1.276 4.653-1.608 6.838-.094.622-.093.624 1.402 2.133 2.672 2.696 5.232 4.55 8.547 6.191l1.876.928 1.348-.616c1.7-.776 3.327-1.742 5.215-3.096 1.128-.809 1.598-1.059 1.99-1.059 1.182 0 1.608 1.443.681 2.307-.905.843-4.126 2.888-6.017 3.82l-1.866.92v7.076l1.407.644c1.802.826 4.223 2.216 6.037 3.466 1.667 1.15 1.476 1.152 3.904-.025a29.6 29.6 0 0 0 5.027-3.107c1.07-.82 3.513-3.146 4.35-4.145l.585-.698-.434-1.359c-.61-1.908-1.183-4.53-1.481-6.786l-.255-1.923-3.886-1.26c-2.569-.831-4-1.372-4.221-1.593-.241-.24-.364-.607-.442-1.31-.442-4.017-2.001-9.12-3.911-12.805-.7-1.35-.645-1.325-3.681-1.723-1.63-.213-6.337-.295-7.645-.132M3.298 47.696c.143 1.588.716 4.213 1.305 5.979.517 1.55 1.807 4.365 2.512 5.48l.432.683.198-.574c.302-.872.933-4.111 1.127-5.785l.172-1.49-.913-1.023c-1.376-1.543-4.543-4.45-4.846-4.45-.051 0-.045.531.013 1.18M30.5 69.42c-1.376.627-3.906 2.028-5.002 2.77-.585.396-.606.382 1.118.74 1.843.382 4.762.594 6.739.49 1.94-.103 5.343-.615 5.567-.838.07-.071-.373-.452-.986-.847-1.15-.741-5.532-2.98-5.824-2.976-.09.001-.816.299-1.612.661" clip-rule="evenodd"/></svg>
